Catalina-light/actions/16/pane-hide.svg

<svg xmlns="http://www.w3.org/2000/svg" width="16" height="16" viewBox="0 0 16 16">
 <defs>
  <style id="current-color-scheme" type="text/css">
   .ColorScheme-Text { color:#5c616c; } .ColorScheme-Highlight { color:#5294e2; }
  </style>
 </defs>
 <path style="fill:currentColor" class="ColorScheme-Text" d="M 3 1 L 3 3.0019531 L 11 3.0039062 L 11 13.003906 L 3 13.003906 L 3 15 L 13 15.003906 L 13 1.0039062 L 3 1 z M 6 5.0039062 L 6 7.0039062 L 2 7.0039062 L 2 9.0039062 L 6 9.0039062 L 6 11.003906 L 10 8.0039062 L 6 5.0039062 z"/>
</svg>

<svg width="16" height="16" viewBox="0 0 16 16" xmlns="http://www.w3.org/2000/svg">
<defs>
<style id="current-color-scheme" type="text/css">.ColorScheme-Text { color:#5c616c; } .ColorScheme-Highlight { color:#5294e2; }</style>
</defs>
<path class="ColorScheme-Text" d="m3 1v2.002l8 0.0019531v10h-8v1.9961l10 0.003906v-14l-10-0.0039062zm3 4.0039v2h-4v2h4v2l4-3-4-3z" fill="#363636"/>
</svg>
